dist/svg/folder-o.svg

<!-- Generated by Trend Micro Style Portal -->
<svg version="1.1" xmlns="http://www.w3.org/2000/svg" width="16" height="16" viewBox="0 0 16 16">
  <title>folder-o</title>
  <path fill="rgb(34,34,34)" d="M15 3h-7l-1-2h-6c-0.552 0-1 0.448-1 1v0 12c0 0.552 0.448 1 1 1v0h14c0.552 0 1-0.448 1-1v0-10c0-0.552-0.448-1-1-1v0zM6.38 2l0.72 1.45 0.28 0.55h7.62v1h-14v-3h5.38zM1 14v-8h14v8h-14z"></path>
</svg>

<svg width="16" height="16" viewBox="0 0 16 16" fill="rgb(34, 34, 34)" xmlns="http://www.w3.org/2000/svg"><title>folder-o</title><path d="M15 3H8L7 1H1C0.448 1 0 1.448 0 2V14C0 14.552 0.448 15 1 15H15C15.552 15 16 14.552 16 14V4C16 3.448 15.552 3 15 3ZM6.38 2L7.1 3.45L7.38 4H15V5H1V2H6.38ZM1 14V6H15V14H1Z" fill="rgb(34, 34, 34)" fill-opacity="1.00"/></svg>
